nearoute.svg

<svg version="1.1" viewBox="0 0 24 24" xmlns="http://www.w3.org/2000/svg"><path d="M3.69307 9.50217L3.69307 9.50217C4.10164 9.50217 4.43285 9.83338 4.43285 10.242L4.43285 10.9193C4.43285 11.3279 4.10164 11.6591 3.69307 11.6591L3.69307 11.6591C3.2845 11.6591 2.95329 11.3279 2.95329 10.9193L2.95329 10.242C2.95329 9.83338 3.2845 9.50217 3.69307 9.50217Z" fill="#f39800"/><path d="M7.60129 12.9419C7.60082 13.0227 7.56809 13.0999 7.5104 13.1564C7.4527 13.2129 7.37481 13.2441 7.29406 13.2429L5.17488 13.2429C5.30433 13.621 5.6596 13.8752 6.05929 13.8757C6.30394 13.8793 6.54391 13.8085 6.74742 13.6727C6.88846 13.5829 7.0789 13.6669 7.15167 13.8142C7.22444 13.9615 7.14583 14.1286 7.00434 14.2184C6.60009 14.4879 6.28567 14.4826 6.05839 14.4826C5.20677 14.4826 4.51639 13.7922 4.51639 12.9406C4.51639 12.0889 5.20677 11.3986 6.05839 11.3986C6.80267 11.3999 7.60129 11.9407 7.60129 12.9419ZM5.17578 12.6347L6.95089 12.6347C6.82198 12.2048 6.42896 12.0081 6.06019 12.0081C5.66208 12.0081 5.30726 12.2592 5.17488 12.6347L5.17578 12.6347ZM11.0406 12.9666L11.0406 14.1704C11.0435 14.2527 11.0121 14.3326 10.9538 14.3908C10.8955 14.4491 10.8157 14.4805 10.7333 14.4776C10.572 14.4634 10.4459 14.3322 10.4382 14.1704C10.1746 14.3914 9.87947 14.4776 9.52957 14.4776C8.66312 14.4776 7.97545 13.8326 7.97545 12.9666C7.97279 12.5536 8.13568 12.1568 8.42771 11.8648C8.71974 11.5727 9.11658 11.4098 9.52957 11.4125C10.3956 11.4125 11.0406 12.1006 11.0406 12.9666ZM10.4382 12.9666C10.4382 12.4505 10.0452 12.0144 9.52957 12.0144C9.0066 12.0214 8.58434 12.4436 8.57733 12.9666C8.57733 13.4827 9.01348 13.8757 9.52957 13.8757C9.77205 13.8804 10.006 13.7861 10.1774 13.6146C10.3489 13.4431 10.443 13.2091 10.4382 12.9666ZM13.2577 11.7062C13.2572 11.8757 13.1199 12.013 12.9504 12.0135C12.4346 12.0132 12.0164 12.4315 12.0166 12.9473L12.0166 14.1821C12.0166 14.35 11.8805 14.4862 11.7125 14.4862C11.5446 14.4862 11.4084 14.35 11.4084 14.1821L11.4084 12.9482C11.4092 12.0969 12.0991 11.4069 12.9504 11.4062C13.031 11.405 13.1088 11.436 13.1665 11.4923C13.2241 11.5486 13.257 11.6256 13.2577 11.7062ZM13.2388 12.9419C13.2388 12.0902 13.9293 11.3998 14.781 11.3999C15.6326 11.4 16.323 12.0905 16.3228 12.9422C16.3226 13.7939 15.632 14.4842 14.7804 14.4839C13.9291 14.4832 13.2393 13.7931 13.2388 12.9419ZM13.847 12.9419C13.847 13.4577 14.2652 13.8758 14.781 13.8757C15.2967 13.8756 15.7148 13.4574 15.7146 12.9416C15.7145 12.4258 15.2962 12.0078 14.7804 12.0081C14.2663 12.0113 13.8507 12.4279 13.8488 12.9419L13.847 12.9419ZM19.1598 11.7062L19.1598 13.2541C19.1598 13.941 18.6029 14.4978 17.916 14.4978C17.2291 14.4978 16.6723 13.941 16.6723 13.2541L16.6723 11.7062C16.6723 11.5383 16.8084 11.4022 16.9763 11.4022C17.1443 11.4022 17.2804 11.5383 17.2804 11.7062L17.2804 13.242C17.2804 13.593 17.565 13.8775 17.916 13.8775C18.267 13.8775 18.5516 13.593 18.5516 13.242L18.5516 11.7062C18.5516 11.5383 18.6877 11.4022 18.8557 11.4022C19.0236 11.4022 19.1598 11.5383 19.1598 11.7062ZM19.564 11.4062L19.564 10.1791C19.564 10.0111 19.7002 9.87498 19.8681 9.87498C20.036 9.87498 20.1722 10.0111 20.1722 10.1791L20.1722 11.4075L20.6083 11.4075C20.6891 11.4063 20.767 11.4375 20.8247 11.494C20.8824 11.5505 20.9151 11.6277 20.9156 11.7085C20.9151 11.878 20.7778 12.0152 20.6083 12.0157L20.1722 12.0157L20.1722 14.1843C20.1722 14.3523 20.036 14.4884 19.8681 14.4884C19.7002 14.4884 19.564 14.3523 19.564 14.1843L19.564 11.4062ZM24 12.9419C23.9995 13.0227 23.9668 13.0999 23.9091 13.1564C23.8514 13.2129 23.7735 13.2441 23.6928 13.2429L21.5745 13.2429C21.704 13.6211 22.0595 13.8754 22.4594 13.8757C22.7037 13.8793 22.9434 13.8085 23.1466 13.6727C23.2881 13.5829 23.4785 13.6669 23.5508 13.8142C23.6231 13.9615 23.5445 14.1286 23.4031 14.2184C22.9988 14.4879 22.6844 14.4826 22.4576 14.4826C21.6059 14.4826 20.9156 13.7922 20.9156 12.9406C20.9156 12.0889 21.6059 11.3986 22.4576 11.3986C23.2005 11.3999 24 11.9407 24 12.9419ZM21.5745 12.6347L23.3501 12.6347C23.2207 12.2048 22.8277 12.0081 22.4594 12.0081C22.0614 12.0084 21.7069 12.2595 21.5745 12.6347ZM0.739781 9.5399L0.739781 9.5399C1.14835 9.5399 1.47956 9.87111 1.47956 10.2797L1.47956 13.75C1.47956 14.1585 1.14835 14.4897 0.739781 14.4897L0.739781 14.4897C0.331211 14.4897 0 14.1585 0 13.75L0 10.2797C0 9.87111 0.331211 9.5399 0.739781 9.5399ZM4.00255 14.315L4.00255 14.315C3.68313 14.5692 3.21847 14.5178 2.96227 14.2L0.161701 10.7414C-0.0923858 10.4222-0.0410179 9.95764 0.276688 9.7016L0.276688 9.7016C0.59603 9.44721 1.06089 9.4986 1.31696 9.81659L4.11753 13.2752C4.37162 13.5945 4.32025 14.059 4.00255 14.315Z" fill="#172a88"/></svg>

<svg viewBox="0 0 24 24" xmlns="http://www.w3.org/2000/svg"><path d="M3.693 9.502a.74.74 0 0 1 .74.74v.677a.74.74 0 1 1-1.48 0v-.677a.74.74 0 0 1 .74-.74Z" fill="#f39800"/><path d="M7.601 12.942a.303.303 0 0 1-.307.3h-2.12c.13.379.486.633.885.634.245.003.485-.067.688-.203.141-.09.332-.006.405.141.072.147-.006.315-.148.404-.404.27-.718.265-.946.265a1.542 1.542 0 0 1 0-3.084c.745 0 1.543.542 1.543 1.543Zm-2.425-.307H6.95c-.129-.43-.522-.627-.89-.627a.939.939 0 0 0-.886.627Zm5.865.332v1.203a.297.297 0 0 1-.308.308.324.324 0 0 1-.295-.308c-.263.221-.559.308-.908.308-.867 0-1.555-.645-1.555-1.511a1.544 1.544 0 0 1 1.555-1.555c.866 0 1.51.689 1.51 1.555Zm-.603 0c0-.517-.393-.953-.908-.953a.965.965 0 0 0-.953.953c0 .516.436.909.953.909a.892.892 0 0 0 .908-.91Zm2.82-1.26c0 .169-.138.306-.308.306a.933.933 0 0 0-.933.934v1.235a.304.304 0 1 1-.609 0v-1.234c.001-.851.691-1.541 1.542-1.542a.303.303 0 0 1 .308.3Zm-.02 1.235a1.542 1.542 0 1 1 3.085 0 1.542 1.542 0 0 1-3.084 0Zm.609 0a.934.934 0 1 0 .933-.934.937.937 0 0 0-.931.934h-.002Zm5.313-1.236v1.548a1.244 1.244 0 0 1-2.488 0v-1.548a.304.304 0 1 1 .608 0v1.536a.636.636 0 0 0 1.272 0v-1.536a.304.304 0 0 1 .608 0Zm.404-.3V10.18a.304.304 0 1 1 .608 0v1.229h.436a.303.303 0 0 1 .308.3c0 .17-.138.307-.308.308h-.436v2.168a.304.304 0 1 1-.608 0v-2.778ZM24 12.942a.303.303 0 0 1-.307.3h-2.119c.13.38.485.633.885.634.245.003.484-.067.688-.203.141-.09.332-.006.404.141.072.147-.006.315-.148.404-.404.27-.719.265-.945.265a1.542 1.542 0 1 1 0-3.084c.743 0 1.542.542 1.542 1.543Zm-2.425-.307h1.775c-.13-.43-.522-.627-.89-.627a.94.94 0 0 0-.886.627ZM.74 9.54a.74.74 0 0 1 .74.74v3.47a.74.74 0 0 1-1.48 0v-3.47a.74.74 0 0 1 .74-.74Zm3.263 4.775a.742.742 0 0 1-1.04-.115L.161 10.741a.742.742 0 0 1 .115-1.04.742.742 0 0 1 1.04.116l2.8 3.458a.742.742 0 0 1-.114 1.04Z" fill="#172a88"/></svg>
